X:40
T:The college groves
T:The new demesne
R:Reel
O:Ireland
D:Kevin Burke: If the Cap Fits
B:Fiddlers Fakebook
B:Krassen O'Neill's
B:O'Neill's 1208
B:O'Neill"s 1209
S:Henrik Norbeck?? Kevin Burke??
Z:Transcription:Henrik Norbeck(?), Arr., chords:Mike Long
M:C|
L:1/8
K:G
"D"D2 (3(FED) ADFD|"C"E2cE dEcE|"D"DEFA d2dB|"C"cAGE EDCE|
"D"D2 (3(FED) ADFD|"C"E2cE dEcE|"D"DEFA d2dB|[1 "C"cAGE "D"EDD2:|[2 "C"cAGE "(D)"EDDe|]
"D"fd~d2 fgaf|"C"ec~c2 efge|"D"fdd^c d2dB|"C"cAGE "D"FDDe|\
"D"fd~d2 fgaf|"C"ec~c2 efge|
"D"dfeg "G"fagb|"C/A"afge "D"fdde||\
"D"fgag fd~d2|"C"efgf ec~c2|"D"fgag fddB|
"C"cAGE "D"EDDe|\
"D"fgag fd~d2|"C"efgf ec~c2|"D"dfeg "G"fagb|"A"afge "D"fdde|]
|:"D"~f2df ~f2df|"A"~e2^ce Aece|"D"~f2df fded|"C"cAGE "D"EDD2|\
"D"~f2df dfdf|
"A"~e2^ce cece|"D"dfeg "G"fagb|[1 "A"afge "D"fdde:|2 "A"afge "D"fdd2|]
